X: 10
T: High, The
Z: Slowssisson Marseille
S: https://thesession.org/tunes/44#setting50163
R: reel
M: 4/4
L: 1/8
K: Amix
|:a2fa ecAB| cAeA fAeA|a2fa ecAA| Bcdc BGGG |
a2fa ecAA|(3Bcdef gzfg|afge fdec|1 Bcdc BGGG:|2 Bcdc BGGB||
|:cAeA fAeA| cAaf ecAB|cAeA fAeA| Bcdc BGGB |
cAeA fAeA|(3Bcdef gzfg|afge fdec|1 Bcdc BGGB:|2 Bcdc BGGG||

%-------------------- TUNE SEPARATOR --------------------%

